apps/32/yast-update.svg

<svg width="32" height="32" version="1.1" viewBox="0 0 32 32" xmlns="http://www.w3.org/2000/svg" xmlns:xlink="http://www.w3.org/1999/xlink">
<defs>
<linearGradient id="linearGradient3403" x1="6.9492" x2="11.215" y1="4.5549" y2="59.052" gradientUnits="userSpaceOnUse">
<stop style="stop-color:#32373c" offset="0"/>
<stop style="stop-color:#1a1a1a" offset=".36805"/>
<stop style="stop-color:#31363b" offset="1"/>
</linearGradient>
<linearGradient id="linearGradient20558" x1="25.802" x2="25.111" y1="20.374" y2="58.913" gradientUnits="userSpaceOnUse">
<stop style="stop-color:#3d3d3d" offset="0"/>
<stop offset=".61772"/>
<stop style="stop-color:#3d3d3d" offset="1"/>
</linearGradient>
<linearGradient id="linearGradient4557" x1="43.5" x2="44.142" y1="64.012" y2=".30621" gradientTransform="translate(.36068 -.13017)" gradientUnits="userSpaceOnUse">
<stop style="stop-color:#141618" offset="0"/>
<stop style="stop-color:#686868" offset=".51821"/>
<stop style="stop-color:#31363b" offset="1"/>
</linearGradient>
<linearGradient id="l" x2="0" y1="543.8" y2="512.8" gradientTransform="translate(-384.57,-499.8)" gradientUnits="userSpaceOnUse">
<stop stop-color="#cea476" offset="0"/>
<stop stop-color="#dab58b" offset="1"/>
</linearGradient>
<linearGradient id="m" x2="0" y1="30" y2="8" gradientTransform="matrix(1.4167 0 0 1.4091 1.167 1.727)" gradientUnits="userSpaceOnUse">
<stop stop-color="#cfd2d5" offset="0"/>
<stop stop-color="#eff0f1" offset="1"/>
</linearGradient>
<linearGradient id="n" x1="411.43" x2="411.43" y1="543.8" y2="512.8" gradientTransform="matrix(.50313 0 0 1 -171.62 -499.8)" gradientUnits="userSpaceOnUse">
<stop stop-color="#73ba25" offset="0"/>
<stop stop-color="#81c13b" stop-opacity=".85" offset="1"/>
</linearGradient>
<linearGradient id="o" x1="21" x2="21" y1="13" y2="4" gradientUnits="userSpaceOnUse">
<stop stop-color="#cea476" offset="0"/>
<stop stop-color="#dab58b" offset="1"/>
</linearGradient>
<linearGradient id="p" x1="411.57" x2="411.57" y1="512.8" y2="503.8" gradientTransform="translate(-384.57 -499.8)" gradientUnits="userSpaceOnUse" xlink:href="#j">
<stop stop-color="#ebc69a" offset="0"/>
<stop stop-color="#f4e0c8" stop-opacity="0" offset="1"/>
</linearGradient>
<linearGradient id="j" x1="408.57" x2="408.57" y1="512.8" y2="504.7" gradientTransform="matrix(.66667 0 0 -.37037 -256.38 197.93)" gradientUnits="userSpaceOnUse">
<stop stop-color="#ebc69a" offset="0"/>
<stop stop-color="#73ba25" stop-opacity="0" offset="1"/>
</linearGradient>
<linearGradient id="q" x1="408.57" x2="408.57" y1="512.8" y2="505.6" gradientTransform="matrix(1 0 0 -.55556 -384.57 297.89)" gradientUnits="userSpaceOnUse" xlink:href="#j"/>
<linearGradient id="r" x1="18" x2="30" y1="18" y2="30" gradientTransform="matrix(1.4286 0 0 1.4286 1.143 1.143)" gradientUnits="userSpaceOnUse">
<stop stop-color="#292c2f" offset="0"/>
<stop stop-opacity="0" offset="1"/>
</linearGradient>
<linearGradient id="s" x1="29.045" x2="29.045" y1="22.045" y2="-7.955" gradientTransform="translate(20.955,20.955)" gradientUnits="userSpaceOnUse">
<stop stop-color="#cfd2d5" offset="0"/>
<stop stop-color="#eff0f1" offset="1"/>
</linearGradient>
</defs>
<rect x="2.3412" y="2.2036" width="27.71" height="28.123" ry="0" style="fill-rule:evenodd;fill:#d5ae82"/>
<g transform="matrix(.65843 0 0 .65843 1.4587 1.3559)">
<path d="m4 13v25.682c0 0.736 0.148 1.437 0.416 2.074a5.306 5.306 0 0 0 1.139 1.69c0.48 0.48 1.052 0.87 1.69 1.138a5.327 5.327 0 0 0 2.072 0.416h29.364c0.736 0 1.437-0.148 2.074-0.416a5.306 5.306 0 0 0 1.69-1.139c0.48-0.48 0.87-1.052 1.138-1.69a5.327 5.327 0 0 0 0.417-2.072v-25.683h-34.682z" style="fill:url(#l)"/>
<path d="m4 13v25.682c0 0.736 0.148 1.437 0.416 2.074a5.306 5.306 0 0 0 1.139 1.69c0.48 0.48 1.052 0.87 1.69 1.138a5.327 5.327 0 0 0 2.072 0.416h11.683v-31z" style="fill:url(#m)"/>
<path d="m21 44h17.682c0.736 0 1.437-0.148 2.074-0.416a5.306 5.306 0 0 0 1.69-1.139c0.48-0.48 0.87-1.052 1.138-1.69a5.327 5.327 0 0 0 0.416-2.072v-25.683h-23z" style="fill:url(#n)"/>
<path d="m4 13 6-9h29l5 9z" style="fill-rule:evenodd;fill:url(#o)"/>
<path d="m21 4v14l1-1 1 1 1-1 1 1 1-1 1 1v-14z" style="fill:#f4e0c8"/>
<path d="m21 4h6v9h-6z" style="fill:url(#p)"/>
<path d="m21 18h6v-5h-6z" style="fill:url(#q)"/>
<path d="m21 41.229h-16.266c0.24 0.43 0.475 0.87 0.82 1.216 0.481 0.48 1.053 0.87 1.69 1.139a5.327 5.327 0 0 0 2.074 0.416h11.682z" style="fill:#999"/>
<path d="m21 41.229v2.771h17.682c0.736 0 1.437-0.148 2.074-0.416a5.306 5.306 0 0 0 1.69-1.139c0.345-0.346 0.58-0.785 0.82-1.216z" style="fill:#447821"/>
<path d="m32.571 24-4.33 1.206 15.65 15.65c0.014-0.056 0.027-0.111 0.039-0.167 0.026-0.134 0.045-0.268 0.057-0.403 0.01-0.12 0.014-0.24 0.013-0.36v-6.926l-6-6zm-7.365 4.241-1.206 4.33 3 5.429 4.88 6h8.046c0.288 0 0.464-0.249 0.734-0.304z" style="fill:url(#r);opacity:.2"/>
<path class="ColorScheme-Text" d="m39.955 31.955c0 1.442-0.383 2.79-1.045 3.955l-0.738-0.738 2e-3 -2e-3 -2.778-2.78 0.707-0.706 2.481 2.482a6.946 6.946 0 0 0 0.371-2.211c0-3.878-3.122-7-7-7a6.985 6.985 0 0 0-3.217 0.783l-0.738-0.738a7.981 7.981 0 0 1 3.955-1.045c4.432 0 8 3.568 8 8zm-4.045 6.955a7.981 7.981 0 0 1-3.955 1.045c-4.432 0-8-3.568-8-8 0-1.442 0.383-2.79 1.045-3.955l0.684 0.684 2e-3 -2e-3 2.828 2.828-0.707 0.707-2.479-2.479a6.944 6.944 0 0 0-0.373 2.217c0 3.878 3.122 7 7 7a6.985 6.985 0 0 0 3.217-0.783z" style="fill:url(#s)"/>
</g>
<path transform="matrix(.49506 0 0 .49506 .32431 .23248)" d="m4.7043 3.9815-0.012938 56.82h53.904l1.0222-2.8664s-23.875 0.76639-32.844-4.1404c-10.516-5.7529-15.372-49.697-15.372-49.697z" style="fill:url(#linearGradient3403);mix-blend-mode:normal;stroke-linejoin:round;stroke-width:1.1624;stroke:url(#linearGradient20558)"/>
<rect transform="matrix(.46376 0 0 .46282 1.1561 1.2328)" x="1.0324" y=".59551" width="62.567" height="62.867" rx="5.803" ry="6.2447" style="fill:none;stroke-linejoin:round;stroke-miterlimit:7.8;stroke-opacity:.99515;stroke-width:3.7137;stroke:url(#linearGradient4557)"/>
</svg>

<?xml version="1.0" encoding="UTF-8" standalone="no"?>
<!-- Created with Inkscape (http://www.inkscape.org/) -->

<svg
   width="32"
   height="32"
   version="1.1"
   viewBox="0 0 32 32"
   id="svg22"
   sodipodi:docname="yast-update.svg"
   inkscape:version="1.1.2 (0a00cf5339, 2022-02-04)"
   xmlns:inkscape="http://www.inkscape.org/namespaces/inkscape"
   xmlns:sodipodi="http://sodipodi.sourceforge.net/DTD/sodipodi-0.dtd"
   xmlns:xlink="http://www.w3.org/1999/xlink"
   xmlns="http://www.w3.org/2000/svg"
   xmlns:svg="http://www.w3.org/2000/svg">
  <sodipodi:namedview
     id="namedview24"
     pagecolor="#ffffff"
     bordercolor="#666666"
     borderopacity="1.0"
     inkscape:showpageshadow="2"
     inkscape:pageopacity="0.0"
     inkscape:pagecheckerboard="0"
     inkscape:deskcolor="#d1d1d1"
     showgrid="false"
     inkscape:zoom="9.8"
     inkscape:cx="13.673469"
     inkscape:cy="15.255102"
     inkscape:window-width="3440"
     inkscape:window-height="1359"
     inkscape:window-x="0"
     inkscape:window-y="0"
     inkscape:window-maximized="1"
     inkscape:current-layer="svg22"
     inkscape:pageshadow="2" />
  <defs
     id="defs12">
    <linearGradient
       id="linearGradient1005-3-3"
       x1="5.2535"
       x2="9.3823996"
       y1="15.383"
       y2="2.9421"
       gradientTransform="matrix(0.99999,0,0,0.99999,1.632,-0.61743)"
       gradientUnits="userSpaceOnUse">
      <stop
         stop-color="#fa8200"
         offset="0"
         id="stop2" />
      <stop
         stop-color="#ff9600"
         offset=".36953"
         id="stop4" />
      <stop
         stop-color="#ffb400"
         offset="1"
         id="stop6" />
    </linearGradient>
    <filter
       id="filter4014"
       x="-0.062499933"
       y="-0.057692993"
       width="1.1249999"
       height="1.115386"
       color-interpolation-filters="sRGB">
      <feGaussianBlur
         stdDeviation="1.093751"
         id="feGaussianBlur9" />
    </filter>
    <linearGradient
       inkscape:collect="always"
       xlink:href="#linearGradient3487"
       id="linearGradient3403"
       gradientUnits="userSpaceOnUse"
       x1="6.9491749"
       y1="4.5549412"
       x2="11.215498"
       y2="59.052471" />
    <linearGradient
       id="linearGradient3487">
      <stop
         style="stop-color:#32373c;stop-opacity:1"
         offset="0"
         id="stop3481" />
      <stop
         id="stop3483"
         offset="0.36804965"
         style="stop-color:#1a1a1a;stop-opacity:1" />
      <stop
         style="stop-color:#31363b;stop-opacity:1"
         offset="1"
         id="stop3485" />
    </linearGradient>
    <linearGradient
       inkscape:collect="always"
       xlink:href="#linearGradient20604"
       id="linearGradient20558"
       gradientUnits="userSpaceOnUse"
       x1="25.802212"
       y1="20.373846"
       x2="25.111048"
       y2="58.912758" />
    <linearGradient
       id="linearGradient20604">
      <stop
         id="stop20598"
         offset="0"
         style="stop-color:#3d3d3d;stop-opacity:1" />
      <stop
         style="stop-color:#000000;stop-opacity:1"
         offset="0.61772454"
         id="stop20600" />
      <stop
         id="stop20602"
         offset="1"
         style="stop-color:#3d3d3d;stop-opacity:1" />
    </linearGradient>
    <filter
       inkscape:collect="always"
       style="color-interpolation-filters:sRGB"
       id="filter20720"
       x="-0.017024755"
       y="-0.016457183"
       width="1.0340491"
       height="1.0329144">
      <feGaussianBlur
         inkscape:collect="always"
         stdDeviation="0.14745661"
         id="feGaussianBlur20722" />
    </filter>
    <linearGradient
       gradientTransform="translate(0.36067797,-0.13016949)"
       xlink:href="#linearGradient4555"
       id="linearGradient4557"
       x1="43.499737"
       y1="64.011795"
       x2="44.141731"
       y2="0.30621234"
       gradientUnits="userSpaceOnUse" />
    <linearGradient
       id="linearGradient4555">
      <stop
         style="stop-color:#141618;stop-opacity:1"
         offset="0"
         id="stop4551" />
      <stop
         id="stop4559"
         offset="0.51820582"
         style="stop-color:#686868;stop-opacity:1" />
      <stop
         style="stop-color:#31363b;stop-opacity:1"
         offset="1"
         id="stop4553" />
    </linearGradient>
    <filter
       style="color-interpolation-filters:sRGB"
       id="filter4601"
       x="-0.030244955"
       width="1.0604899"
       y="-0.030100647"
       height="1.0602013">
      <feGaussianBlur
         stdDeviation="0.014790289"
         id="feGaussianBlur4603" />
    </filter>
    <linearGradient
       xlink:href="#a"
       id="l"
       gradientUnits="userSpaceOnUse"
       gradientTransform="translate(-384.57,-499.8)"
       y1="543.79999"
       x2="0"
       y2="512.79999" />
    <linearGradient
       id="a"
       y1="543.79999"
       y2="512.79999"
       x2="0"
       gradientUnits="userSpaceOnUse">
      <stop
         stop-color="#cea476"
         id="stop3" />
      <stop
         offset="1"
         stop-color="#dab58b"
         id="stop5" />
    </linearGradient>
    <linearGradient
       id="m"
       gradientTransform="matrix(1.41667,0,0,1.4091,1.167,1.727)"
       gradientUnits="userSpaceOnUse"
       x2="0"
       xlink:href="#k"
       y1="30"
       y2="8" />
    <linearGradient
       id="k"
       gradientUnits="userSpaceOnUse"
       x2="0"
       y1="30"
       y2="8">
      <stop
         offset="0"
         stop-color="#cfd2d5"
         id="stop56" />
      <stop
         offset="1"
         stop-color="#eff0f1"
         id="stop58" />
    </linearGradient>
    <linearGradient
       xlink:href="#c"
       id="n"
       gradientUnits="userSpaceOnUse"
       gradientTransform="matrix(0.50313,0,0,1,-171.625,-499.8)"
       x1="411.427"
       y1="543.79999"
       x2="411.427"
       y2="512.79999" />
    <linearGradient
       id="c"
       gradientTransform="matrix(0.50313,0,0,1,-231.625,-499.8)"
       gradientUnits="userSpaceOnUse"
       x1="411.427"
       x2="411.427"
       y1="543.79999"
       y2="512.79999">
      <stop
         offset="0"
         stop-color="#73ba25"
         id="stop61" />
      <stop
         offset="1"
         stop-color="#81c13b"
         stop-opacity=".85"
         id="stop63" />
    </linearGradient>
    <linearGradient
       id="o"
       gradientUnits="userSpaceOnUse"
       x1="21"
       x2="21"
       xlink:href="#i"
       y1="13"
       y2="4" />
    <linearGradient
       id="i">
      <stop
         offset="0"
         stop-color="#cea476"
         id="stop43" />
      <stop
         offset="1"
         stop-color="#dab58b"
         id="stop45" />
    </linearGradient>
    <linearGradient
       id="p"
       gradientTransform="translate(-384.57,-499.801)"
       gradientUnits="userSpaceOnUse"
       x1="411.57001"
       x2="411.57001"
       xlink:href="#j"
       y1="512.80103"
       y2="503.80099">
      <stop
         offset="0"
         stop-color="#ebc69a"
         id="stop50" />
      <stop
         offset="1"
         stop-color="#f4e0c8"
         stop-opacity="0"
         id="stop52" />
    </linearGradient>
    <linearGradient
       id="j"
       gradientTransform="matrix(0.66667,0,0,-0.37037,-256.38,197.926)"
       gradientUnits="userSpaceOnUse"
       x1="408.57001"
       x2="408.57001"
       y1="512.79797"
       y2="504.698">
      <stop
         offset="0"
         stop-color="#ebc69a"
         id="stop66" />
      <stop
         offset="1"
         stop-color="#73ba25"
         stop-opacity="0"
         id="stop68" />
    </linearGradient>
    <linearGradient
       id="q"
       gradientTransform="matrix(1,0,0,-0.55556,-384.57,297.89)"
       gradientUnits="userSpaceOnUse"
       x1="408.57001"
       x2="408.57001"
       xlink:href="#j"
       y1="512.79797"
       y2="505.59799" />
    <linearGradient
       xlink:href="#g"
       id="r"
       gradientUnits="userSpaceOnUse"
       x1="18"
       y1="18"
       x2="30"
       y2="30"
       gradientTransform="matrix(1.42857,0,0,1.42857,1.143,1.143)" />
    <linearGradient
       id="g"
       x1="18"
       x2="30"
       y1="18"
       y2="30"
       gradientUnits="userSpaceOnUse"
       gradientTransform="translate(40)">
      <stop
         stop-color="#292c2f"
         offset="0"
         id="stop30" />
      <stop
         stop-opacity="0"
         offset="1"
         id="stop32" />
    </linearGradient>
    <linearGradient
       xlink:href="#e"
       id="s"
       x1="29.045"
       y1="22.045"
       x2="29.045"
       y2="-7.9549999"
       gradientUnits="userSpaceOnUse"
       gradientTransform="translate(20.955,20.955)" />
    <linearGradient
       id="e"
       gradientUnits="userSpaceOnUse"
       x2="0"
       y1="30"
       y2="8">
      <stop
         offset="0"
         stop-color="#cfd2d5"
         id="stop19" />
      <stop
         offset="1"
         stop-color="#eff0f1"
         id="stop21" />
    </linearGradient>
  </defs>
  <rect
     style="display:inline;fill:#d5ae82;fill-opacity:1;fill-rule:evenodd;stroke:none;stroke-width:0.610903;stroke-linejoin:round;stroke-miterlimit:7.8"
     id="rect1192"
     width="27.709677"
     height="28.122845"
     x="2.3412104"
     y="2.203557"
     ry="0"
     inkscape:label="arriere" />
  <g
     id="g886"
     transform="matrix(0.65842792,0,0,0.65842792,1.4586736,1.355851)">
    <path
       d="m 4,13 v 25.682 c 0,0.736 0.148,1.437 0.416,2.074 a 5.306,5.306 0 0 0 1.139,1.69 c 0.48,0.48 1.052,0.87 1.69,1.138 A 5.327,5.327 0 0 0 9.317,44 h 29.364 c 0.736,0 1.437,-0.148 2.074,-0.416 a 5.306,5.306 0 0 0 1.69,-1.139 c 0.48,-0.48 0.87,-1.052 1.138,-1.69 A 5.327,5.327 0 0 0 44,38.683 V 13 H 9.318 Z"
       id="path71"
       style="fill:url(#l)"
       inkscape:connector-curvature="0" />
    <path
       d="m 4,13 v 25.682 c 0,0.736 0.148,1.437 0.416,2.074 a 5.306,5.306 0 0 0 1.139,1.69 c 0.48,0.48 1.052,0.87 1.69,1.138 A 5.327,5.327 0 0 0 9.317,44 H 21 V 13 Z"
       id="path73"
       style="fill:url(#m)"
       inkscape:connector-curvature="0" />
    <path
       d="m 21,44 h 17.682 c 0.736,0 1.437,-0.148 2.074,-0.416 a 5.306,5.306 0 0 0 1.69,-1.139 c 0.48,-0.48 0.87,-1.052 1.138,-1.69 A 5.327,5.327 0 0 0 44,38.683 V 13 H 21 Z"
       id="path75"
       style="fill:url(#n)"
       inkscape:connector-curvature="0" />
    <path
       d="m 4,13 6,-9 h 29 l 5,9 z"
       id="path77"
       style="fill:url(#o);fill-rule:evenodd"
       inkscape:connector-curvature="0" />
    <path
       d="m 21,4 v 14 l 1,-1 1,1 1,-1 1,1 1,-1 1,1 V 4 Z"
       id="path79"
       inkscape:connector-curvature="0"
       style="fill:#f4e0c8" />
    <path
       d="m 21,4 h 6 v 9 h -6 z"
       id="path81"
       style="fill:url(#p)"
       inkscape:connector-curvature="0" />
    <path
       d="m 21,18 h 6 v -5 h -6 z"
       id="path83"
       style="fill:url(#q)"
       inkscape:connector-curvature="0" />
    <path
       d="M 21,41.229 H 4.734 c 0.24,0.43 0.475,0.87 0.82,1.216 0.481,0.48 1.053,0.87 1.69,1.139 A 5.327,5.327 0 0 0 9.318,44 H 21 Z"
       id="path85"
       inkscape:connector-curvature="0"
       style="fill:#999999" />
    <path
       d="M 21,41.229 V 44 h 17.682 c 0.736,0 1.437,-0.148 2.074,-0.416 a 5.306,5.306 0 0 0 1.69,-1.139 c 0.345,-0.346 0.58,-0.785 0.82,-1.216 z"
       id="path87"
       inkscape:connector-curvature="0"
       style="fill:#447821" />
    <path
       d="m 32.571,24 -4.33,1.206 15.65,15.65 c 0.014,-0.056 0.027,-0.111 0.039,-0.167 0.026,-0.134 0.045,-0.268 0.057,-0.403 0.01,-0.12 0.014,-0.24 0.013,-0.36 V 33 L 38,27 Z M 25.206,28.241 24,32.571 27,38 l 4.88,6 h 8.046 c 0.288,0 0.464,-0.249 0.734,-0.304 z"
       id="path89"
       style="opacity:0.2;fill:url(#r)"
       inkscape:connector-curvature="0" />
    <path
       class="ColorScheme-Text"
       d="m 39.955,31.955 c 0,1.442 -0.383,2.79 -1.045,3.955 l -0.738,-0.738 0.002,-0.002 -2.778,-2.78 0.707,-0.706 2.481,2.482 a 6.946,6.946 0 0 0 0.371,-2.211 c 0,-3.878 -3.122,-7 -7,-7 a 6.985,6.985 0 0 0 -3.217,0.783 L 28,25 a 7.981,7.981 0 0 1 3.955,-1.045 c 4.432,0 8,3.568 8,8 z M 35.91,38.91 a 7.981,7.981 0 0 1 -3.955,1.045 c -4.432,0 -8,-3.568 -8,-8 0,-1.442 0.383,-2.79 1.045,-3.955 l 0.684,0.684 0.002,-0.002 2.828,2.828 -0.707,0.707 -2.479,-2.479 a 6.944,6.944 0 0 0 -0.373,2.217 c 0,3.878 3.122,7 7,7 a 6.985,6.985 0 0 0 3.217,-0.783 z"
       id="path91"
       style="fill:url(#s)"
       inkscape:connector-curvature="0" />
  </g>
  <path
     style="display:inline;mix-blend-mode:normal;fill:url(#linearGradient3403);fill-opacity:1;stroke:url(#linearGradient20558);stroke-width:1.16242;stroke-linecap:butt;stroke-linejoin:round;stroke-miterlimit:4;stroke-dasharray:none;stroke-opacity:1;filter:url(#filter20720)"
     d="M 4.7043071,3.9814882 4.6913695,60.80196 H 58.59546 l 1.022155,-2.866369 c 0,0 -23.87537,0.766388 -32.844441,-4.140386 C 16.257548,48.042344 11.401114,4.0978197 11.401114,4.0978197 Z"
     id="path1686"
     sodipodi:nodetypes="ccccscc"
     transform="matrix(0.49505859,0,0,0.49505859,0.3243101,0.23248483)"
     inkscape:label="folder" />
  <rect
     style="display:inline;fill:none;fill-opacity:1;stroke:url(#linearGradient4557);stroke-width:3.71366;stroke-linejoin:round;stroke-miterlimit:7.8;stroke-dasharray:none;stroke-opacity:0.995146;filter:url(#filter4601)"
     id="rect4539"
     width="62.566689"
     height="62.866646"
     x="1.0323594"
     y="0.59551275"
     ry="6.2447233"
     rx="5.8029528"
     transform="matrix(0.46376234,0,0,0.46281709,1.1560889,1.2328476)"
     inkscape:label="contour" />
</svg>
